assets/svgs/misc-grey/MiscGrey88.svg

<svg width="34" height="38" viewBox="0 0 34 38" fill="none" xmlns="http://www.w3.org/2000/svg">
<path fill-rule="evenodd" clip-rule="evenodd" d="M16.88 14.354C17.71 14.354 18.38 13.683 18.38 12.854V2.27899C18.38 1.45099 17.71 0.778992 16.88 0.778992C16.05 0.778992 15.38 1.45099 15.38 2.27899V12.854C15.38 13.683 16.05 14.354 16.88 14.354Z" fill="#1A1919"/>
<path fill-rule="evenodd" clip-rule="evenodd" d="M23.06 5.83597C22.29 5.53897 21.42 5.93497 21.13 6.71097C20.84 7.48497 21.23 8.35097 22 8.64297C27.09 10.56 30.25 15.292 30.25 20.995C30.25 28.366 24.25 34.363 16.88 34.363C9.51001 34.363 3.51001 28.366 3.51001 20.995C3.51001 15.61 6.72001 10.775 11.68 8.67797C12.44 8.35397 12.8 7.47497 12.48 6.71197C12.16 5.94897 11.28 5.59197 10.51 5.91397C4.44001 8.48197 0.51001 14.402 0.51001 20.995C0.51001 30.021 7.86001 37.363 16.88 37.363C25.91 37.363 33.25 30.021 33.25 20.995C33.25 14.012 29.35 8.20297 23.06 5.83597Z" fill="#1A1919"/>
</svg>

<svg xmlns="http://www.w3.org/2000/svg" fill="none" viewBox="0 0 34 38"><path fill="#1A1919" fill-rule="evenodd" d="M16.88 14.354c.83 0 1.5-.671 1.5-1.5V2.279a1.5 1.5 0 10-3 0v10.575c0 .829.67 1.5 1.5 1.5z" clip-rule="evenodd"/><path fill="#1A1919" fill-rule="evenodd" d="M23.06 5.836a1.494 1.494 0 00-1.93.875c-.29.774.1 1.64.87 1.932 5.09 1.917 8.25 6.649 8.25 12.352 0 7.371-6 13.368-13.37 13.368-7.37 0-13.37-5.997-13.37-13.368 0-5.385 3.21-10.22 8.17-12.317a1.507 1.507 0 00.8-1.966 1.502 1.502 0 00-1.97-.798 16.352 16.352 0 00-10 15.081c0 9.026 7.35 16.368 16.37 16.368 9.03 0 16.37-7.342 16.37-16.368 0-6.983-3.9-12.792-10.19-15.159z" clip-rule="evenodd"/></svg>
